!!!id: bhatk3204a
!!!vol: 3
!!!page: 205
!!!antara: Jabate suni murali dhuna
!!!raag: bihag
!!!taal: teental
!!!tempo: madhyalaya
**kern
!!data: // >mP  P  S'  S'/  S'  -  S'  S'/  %S'  -  N  P/  P  P  >NS'  N/
==1
f#q
4g
4g
4cc
4cc
=
2cc
4cc
4cc
=
2ccS
4b
4g
=
4g
4g
bq
4cc
4b
!!data: // S  S  G  M/  P  P  N  S'/  G'R'  S'N  DP  MG/  MP  MG  RS  >S'NS'/
==2
4c
4c
4e
4f
=
4g
4g
4b
4cc
=
8ee
8dd
8cc
8b
8a
8g
8f
8e
=
8f
8g
8f
8e
8d
8c
ccq
8b
8cc
==
*-
